public/transport-stops-generator/img/trol-tram.svg

<svg id="Layer_1" data-name="Layer 1" xmlns="http://www.w3.org/2000/svg" viewBox="0 0 303 143"><defs><style>.cls-1{fill:#199ed9;}.cls-1,.cls-2{fill-rule:evenodd;}.cls-2{fill:#ef7f1a;}.cls-3{fill:none;}</style></defs><path class="cls-1" d="M60.1758,34.35335H114.091a9.01066,9.01066,0,0,1,8.98446,8.98446c0,23.88591.1351,49.13425.1351,71.88511H111.036v-5.99H63.49861v5.98941H51.3241c0-22.8155-.13276-47.94639-.13276-71.88454a9.01019,9.01019,0,0,1,8.98446-8.98446Zm67.41379,26.9561h8.62085V82.27564h-8.62085V61.30945Zm-89.26475,0h8.62078V82.27564H38.32484V61.30945ZM63.17136,91.26067a5.99058,5.99058,0,1,1-5.99061,5.99054,5.991,5.991,0,0,1,5.99061-5.99054ZM60.1758,42.829H114.091V52.83325H60.1758V42.829Zm0,18.48041H114.091V85.27126H60.1758V61.30945Zm50.91956,29.95122a5.99058,5.99058,0,1,1-5.99055,5.99054,5.9911,5.9911,0,0,1,5.99055-5.99054Z"/><path class="cls-1" d="M69.21776,26.27188,81.92507,13.56406l6.35359,6.35359L75.57135,32.625l-6.35359-6.35315Zm22.51178,0,12.70788-12.70782,6.35365,6.35359L98.08319,32.625l-6.35365-6.35315Z"/><path class="cls-2" d="M186.76684,34.35335h53.91524a9.01062,9.01062,0,0,1,8.9844,8.98446V82.27564L246.67085,97.253c-.96877,4.845-4.04364,8.98433-8.98439,8.98433H189.76239c-4.94069,0-8.01562-4.13883-8.9849-8.98433l-2.995-14.97735V43.33781a9.01021,9.01021,0,0,1,8.9844-8.98446Zm67.27989,26.9561h8.62015V82.27564h-8.62015V61.30945Zm-89.26533,0h8.62136V82.27564H164.7814V61.30945Zm46.42654,60.0104L223.91582,108.612l6.35365,6.35309L217.5616,127.67287l-6.35366-6.353Zm-22.51178,0L201.40347,108.612l6.35359,6.35309-12.70731,12.70781-6.35359-6.353ZM189.763,13.38716h47.92286v8.47575H221.701L210.93888,32.625l-6.353-6.35315,4.40846-4.409H189.763V13.38716Zm38.93726,74.87909a5.99026,5.99026,0,1,1-5.99,5.99054,5.99032,5.99032,0,0,1,5.99-5.99054Zm-29.9523,0a5.99026,5.99026,0,1,1-5.99054,5.99054,5.9907,5.9907,0,0,1,5.99054-5.99054ZM186.76684,43.084h53.91524v9.74926H186.76684V43.084Zm0,18.52513h53.91524V82.27564H186.76684V61.60912Z"/><rect class="cls-3" x="-0.35537" y="-0.02045" width="303.55769" height="142.85714"/><rect class="cls-3" x="-0.35537" y="142.8367" width="303.55769" height="142.85714"/></svg>

<svg data-name="Layer 1" xmlns="http://www.w3.org/2000/svg" viewBox="0 0 303 143"><path d="M60.176 34.353h53.915a9.01 9.01 0 018.984 8.985c0 23.886.136 49.134.136 71.885h-12.175v-5.99H63.499v5.99H51.324c0-22.816-.133-47.947-.133-71.885a9.01 9.01 0 018.985-8.985zM127.59 61.31h8.62v20.967h-8.62V61.309zm-89.265 0h8.62v20.967h-8.62V61.309zM63.17 91.261a5.99 5.99 0 11-5.99 5.99 5.991 5.991 0 015.99-5.99zm-2.995-48.432h53.915v10.004H60.176V42.83zm0 18.48h53.915v23.962H60.176V61.31zm50.92 29.952a5.99 5.99 0 11-5.991 5.99 5.991 5.991 0 015.99-5.99zM69.218 26.272l12.707-12.708 6.354 6.354L75.57 32.625l-6.353-6.353zm22.512 0l12.707-12.708 6.354 6.354-12.708 12.707-6.353-6.353z" fill="#199ed9" fill-rule="evenodd"/><path d="M186.767 34.353h53.915a9.01 9.01 0 018.984 8.985v38.938l-2.995 14.977c-.969 4.845-4.044 8.984-8.985 8.984h-47.924c-4.94 0-8.015-4.138-8.985-8.984l-2.995-14.977V43.338a9.01 9.01 0 018.985-8.985zm67.28 26.956h8.62v20.967h-8.62V61.309zm-89.266 0h8.622v20.967h-8.622V61.309zm46.427 60.01l12.708-12.707 6.353 6.353-12.707 12.708-6.354-6.353zm-22.512 0l12.707-12.707 6.354 6.353-12.707 12.708-6.354-6.353zm1.067-107.932h47.923v8.476H221.7l-10.762 10.762-6.353-6.353 4.408-4.41h-19.231v-8.475zm38.937 74.88a5.99 5.99 0 11-5.99 5.99 5.99 5.99 0 015.99-5.99zm-29.952 0a5.99 5.99 0 11-5.99 5.99 5.99 5.99 0 015.99-5.99zm-11.981-45.183h53.915v9.75h-53.915v-9.75zm0 18.525h53.915v20.667h-53.915V61.609z" fill="#ef7f1a" fill-rule="evenodd"/><path d="M-.355-.02h303.558v142.857H-.355zm0 142.857h303.558v142.857H-.355z" fill="none"/></svg>
